X:7
T:Bonney Lades
C:from Edward Winder's ms2
M:2/4
L:1/16
K:A
c3B A2e2|f2a2 e2c2|d2f2 e2c2|B4B4|c3B A2e2|f2a2 e2c2|d3f e2c2|A4A4:|
|:c2A2 e2A2|f2A2 e2A2|c2A2 e2c2|B4B4|c2A2 e2A2|f2A2 e2A2|d3f e2c2|A4A4:|
%%newpage
